source/img/3.svg

<svg width="112" height="232" viewBox="0 0 112 232" fill="none" xmlns="http://www.w3.org/2000/svg">
<path d="M55.9213 231.52C37.8146 231.52 24.0013 226.48 14.4813 216.4C5.14792 206.133 0.481251 191.76 0.481251 173.28V165.72H30.1613V170.76C30.5346 182.333 32.4946 191.2 36.0413 197.36C39.7746 203.52 46.4013 206.6 55.9213 206.6C66.0013 206.6 72.8146 203.147 76.3613 196.24C80.0946 189.147 81.9613 178.693 81.9613 164.88C81.9613 152.187 79.6279 142.293 74.9613 135.2C70.2946 127.92 62.7346 123.907 52.2813 123.16C51.5346 122.973 50.1346 122.88 48.0813 122.88V92.92H52.0013C62.6413 92.5467 70.2946 89.7467 74.9613 84.52C79.6279 79.2933 81.9613 70.6133 81.9613 58.48C81.9613 47.28 80.0946 38.88 76.3613 33.28C72.6279 27.4933 65.9079 24.6 56.2013 24.6C46.4946 24.6 39.7746 27.68 36.0413 33.84C32.4946 40 30.5346 49.0533 30.1613 61V65.76H0.481251V58.2C0.481251 39.72 5.14792 25.44 14.4813 15.36C24.0013 5.27999 37.9079 0.239991 56.2013 0.239991C74.4946 0.239991 88.3079 5.37333 97.6413 15.64C107.161 25.72 111.921 40 111.921 58.48C111.921 71.7333 109.028 82.56 103.241 90.96C97.4546 99.36 89.5213 105.053 79.4413 108.04C89.7079 111.213 97.6413 117.653 103.241 127.36C109.028 137.067 111.921 149.573 111.921 164.88C111.921 185.973 107.348 202.4 98.2013 214.16C89.2413 225.733 75.1479 231.52 55.9213 231.52Z" fill="#F2F2F2"/>
</svg>

<svg width="112" height="232" fill="none" xmlns="http://www.w3.org/2000/svg"><path d="M56 231.5c-18.2 0-32-5-41.5-15.1C5 206.1.5 191.8.5 173.3v-7.6h29.7v5a57.9 57.9 0 005.8 26.7c3.8 6.1 10.4 9.2 20 9.2 10 0 16.8-3.5 20.4-10.4 3.7-7 5.6-17.5 5.6-31.3 0-12.7-2.4-22.6-7-29.7-4.7-7.3-12.3-11.3-22.7-12-.8-.2-2.2-.3-4.2-.3v-30H52c10.6-.4 18.3-3.2 23-8.4 4.6-5.2 7-13.9 7-26 0-11.2-2-19.6-5.6-25.2-3.8-5.8-10.5-8.7-20.2-8.7s-16.4 3-20.2 9.2A59.3 59.3 0 0030.2 61v4.8H.5v-7.6c0-18.5 4.6-32.8 14-42.8C24 5.3 37.9.2 56.2.2c18.3 0 32.1 5.2 41.4 15.4C107.2 25.7 112 40 112 58.5a56 56 0 01-8.7 32.5 42.7 42.7 0 01-23.8 17 40.6 40.6 0 0123.8 19.4 72.5 72.5 0 018.7 37.5c0 21-4.6 37.5-13.7 49.3-9 11.5-23 17.3-42.3 17.3z" fill="#F2F2F2"/></svg>
